X:58
T:58 Captain O Cain
C:Welch MS
N:Originally by O'Carolan, as Captain O'Kane, a fifth lower
I:abc2nwc
M:6/8
L:1/8
K:C
A/2G/2|EAA/2B/2 c2B/2A/2|Bd/2c/2B/2A/2 GAB|cec e/2d/2c/2B/2A/2G/2|EAA A2A/2G/2|
EAA/2B/2 c2B/2A/2|Bd/2c/2B/2A/2 GAB|cec e/2d/2c/2B/2A/2G/2|EAA A2|]
B|cee efg|Bdd d2g/2f/2|ea^g abc'|ea^g a2b|
c'ba gee|dBg GAB|cec e/2d/2c/2B/2A/2G/2|EAA A2:|

